X:1
T:Title
%%score { ( 1 4 ) | ( 2 3 ) }
L:1/8
M:4/4
K:Ab
V:1 treble nm="Grand Piano"
V:4 treble 
V:2 bass 
V:3 bass 
V:1
 z4 z2[Q:1/4=106] [CE]2 | [Ec]2 [Ec]2 [EB]2 [EA]2 | F2 A2 E4 | EFGA [GB]2 [Ac]2 | %4
[M:3/4] [GB]4 [EAe]2 |[M:1/4] [Ed]2 |[M:4/4] [Ec]2 [Ec]2 [EB]2 [EA]2 | F2 A2 E4 | %8
 EFGA [DGB]2 [EAc]2 | [DGB]4 [CEA]2 z2 | [Ac]4 [EA]4 | BAFA E4 | [DGB]2 [DGB][Ac] d2- [Bd]2 | %13
 z4 e4 | [Ac]4 [EA]4 | BAFA E4 | EFGA [DGB]2 [EAc]2 |[M:3/4] [DGB]4 [CEA]2 |] %18
V:2
 z4 z2 [A,,A,]2 | [A,,A,]2 [A,,A,]2 [E,G,]2 [C,A,]2 | [D,A,D]2 [F,A,D]2 [A,C]4 | %3
 [E,G,][E,A,E][E,B,E][E,CE] [E,D]2 [E,E]2 |[M:3/4] E4 z2 |[M:1/4] [B,,G,]2 | %6
[M:4/4] [A,,A,]2 [A,,A,]2 [E,G,]2 [C,A,]2 | [D,A,D]2 [F,A,D]2 [A,C]4 | %8
 [E,G,][E,A,E][E,B,E][E,CE] E,2 E,2 | E,4 A,,2 z2 | A,2 A,2 A,,2 C,2 | %11
 [D,F,D][D,F,D][D,A,D][F,A,D] [A,C]4 | E,2 z C [E,B,]2 [E,G,]2 | [A,EA]2 [EA][DB] [A,CA]2 A,2 | %14
 A,2 A,2 A,,2 C,2 | [D,F,D][D,F,D][D,A,D][F,A,D] [A,C]4 | [E,G,][E,A,E][E,B,E][E,CE] E,2 E,2 | %17
[M:3/4] E,4 A,,2 |] %18
V:3
 x8 | x8 | x8 | x8 |[M:3/4] E,2 D,2 C,2 |[M:1/4] x2 |[M:4/4] x8 | x8 | x8 | x8 | x8 | x8 | %12
 z2 E,2 z4 | z2 A,2 z4 | x8 | x8 | x8 |[M:3/4] x6 |] %18
V:4
 x8 | x8 | x8 | x8 |[M:3/4] x6 |[M:1/4] x2 |[M:4/4] x8 | x8 | x8 | x8 | E2 E2 C2 A,2 | x8 | %12
 z4 G2 z2 | c2 cd z2 c2 | E2 E2 C2 A,2 | x8 | x8 |[M:3/4] x6 |] %18

